!!!COM: Mozart, Wolfgang Amadeus
!!!OTL: Musikalische Würfelspiele, Kontre-Tänze
!!!SCA: K<sup>6</sup> Anh. C30.01 (K<sup>3</sup> Anh. 294d)
**kern	**kern
*staff2	*staff2
*clefF4	*clefG2
*M2/4	*M2/4
*MM110	*MM110
*>[A,A1,A,A2,B]	*>[A,A1,A,A2,B]
*>norep[A,A2,B]	*>norep[A,A2,B]
*>A	*>A
=165	=165
4C	8cc
.	16ee
.	16cc
4r	8g
.	8g
=1	=1
4C	8gg
.	8gg
4r	8ee
.	8cc
=90	=90
8G	8dd
16GG	8b
16AA	.
16BB	8g
16AA	.
16BB	8b
16GG	.
=163	=163
4C	16cc
.	16b
.	16cc
.	16dd
4C	8cc
.	8cc
=111	=111
4D	8d
.	16f#
.	16a
4D	8dd
.	8ff#
=30	=30
4BB 4G	8gg
.	8dd
4BB	(8dd
.	8dd#)
=132	=132
16C	8ee
16A	.
16F#	4cc
16A	.
16AA	.
16D	.
16C	16a
16D	16f#
=16	=16
*>A1	*>A1
4GG	4g 4b 4gg
16G	4r
16F	.
16E	.
16D	.
=16:|!	=16:|!
*>A2	*>A2
4GG	4g 4b 4gg
16GG	4r
16AA	.
16BB	.
16C#	.
=4||	=4||
*>B	*>B
4D	8d
.	8dd
4C 4D	8ff#
.	8aa
=91	=91
16BB	4gg
16D	.
16G	.
16D	.
16BB	8bb
16GG	.
16AA	8r
16BB	.
=72	=72
16C	4ee
16E	.
16G	.
16E	.
16C	8cc
16E	.
16G	8cc
16E	.
=51	=51
4GG	16b
.	16gg
.	16dd
.	16b
16G	4g
16F	.
16E	.
16D	.
=94	=94
16C	8cc
16E	.
16G	8ee
16E	.
16C	8gg
16E	.
16G	8ee
16E	.
=48	=48
4C	8cc
.	16cc
.	16ee
4r	8gg
.	16gg
.	16ee
=17	=17
4GG	16dd
.	16ee
.	16ff
.	16ee
4GG	16ff
.	16dd
.	16cc
.	16b
=5	=5
4C	4cc
4CC	4c
==	==
*-	*-
